packages/tokens/icons/sort/size16Px.svg

<svg viewBox="0 0 16 16" fill="none" xmlns="http://www.w3.org/2000/svg" width="1em" height="1em"><path d="M7.64645 12.6464C7.84171 12.8417 8.15829 12.8417 8.35355 12.6464L11.1464 9.85355C11.4614 9.53857 11.2383 9 10.7929 9H5.20711C4.76165 9 4.53857 9.53857 4.85355 9.85355L7.64645 12.6464Z" fill="currentColor"/><path d="M7.64645 3.35355C7.84171 3.15829 8.15829 3.15829 8.35355 3.35355L11.1464 6.14645C11.4614 6.46143 11.2383 7 10.7929 7L5.20711 7C4.76165 7 4.53857 6.46143 4.85355 6.14645L7.64645 3.35355Z" fill="currentColor"/></svg>

<svg xmlns="http://www.w3.org/2000/svg" fill="none" viewBox="0 0 16 16" width="1em" height="1em"><path fill="currentColor" d="M7.646 12.646a.5.5 0 0 0 .708 0l2.792-2.792A.5.5 0 0 0 10.793 9H5.207a.5.5 0 0 0-.353.854l2.792 2.792Zm0-9.292a.5.5 0 0 1 .708 0l2.792 2.792a.5.5 0 0 1-.353.854H5.207a.5.5 0 0 1-.353-.854l2.792-2.792Z"/></svg>
